X: 1
P: Souter Johnny
C: trad., from Jerry Holland
C: Arr. T. Traub 4-17-2000
R: Reel
K: D
M: 4/4
L: 1/8
|: A|"D"d2 AF "G"BG"D"AF|"Em"GEFD "A"CEEc|"D"d2 AF "G"BGAg|"A"fdec "D"dD D :|
g|"D"fdad "G"bd"D"ad|"Em"gfed "A"ceAg|"D"fdad "G"bd"D"ad|"A"fedc "D"d2 Dg|
"D"fdad "G"bd"D"ad|"G"gfed "A"cdeg|"D"fd"A"ec "D"dBAg|"A"faeg "D"fd d |]



